packages/icons/raw/imported/SoftwarePuzzle.svg

<svg width="32" height="32" viewBox="0 0 32 32" fill="none" xmlns="http://www.w3.org/2000/svg">
<path d="M25.5 23.8271L25 23.8271L25 23.8271L25.5 23.8271ZM25.5 12.3481L25 12.348L25 12.3481L25.5 12.3481ZM23.8527 25C23.5765 25 23.3527 25.2239 23.3527 25.5C23.3527 25.7761 23.5765 26 23.8527 26L23.8527 25ZM12.2573 25.5L12.2573 26L12.2573 26L12.2573 25.5ZM15.5433 25.4999L15.5433 25.9999C15.8194 25.9999 16.0433 25.7761 16.0433 25.4999L15.5433 25.4999ZM20.476 25.4999L19.976 25.4999C19.976 25.7761 20.1998 25.9999 20.476 25.9999L20.476 25.4999ZM11.1106 23.8297L11.1106 22.2637L10.1106 22.2637L10.1106 23.8297L11.1106 23.8297ZM8.96635 20.0934C7.88776 20.0934 7 19.203 7 18.0879L6 18.0879C6 19.7403 7.32069 21.0934 8.96635 21.0934L8.96635 20.0934ZM7 18.0879C7 16.9729 7.88776 16.0824 8.96635 16.0824L8.96635 15.0824C7.32069 15.0824 6 16.4355 6 18.0879L7 18.0879ZM16.0433 9.0055C16.0433 7.89044 16.931 7 18.0096 7L18.0096 6C16.364 6 15.0433 7.35306 15.0433 9.0055L16.0433 9.0055ZM18.0096 7C19.0882 7 19.976 7.89044 19.976 9.0055L20.976 9.0055C20.976 7.35306 19.6553 6 18.0096 6L18.0096 7ZM13.899 10.1758L12.2548 10.1758L12.2548 11.1758L13.899 11.1758L13.899 10.1758ZM22.1202 11.1758L23.8558 11.1758L23.8558 10.1758L22.1202 10.1758L22.1202 11.1758ZM11.1106 13.912L11.1106 12.3463L10.1106 12.3463L10.1106 13.912L11.1106 13.912ZM26 23.8271L26 12.3481L25 12.3481L25 23.8271L26 23.8271ZM12.2548 10.1758C11.0631 10.1758 10.1106 11.1552 10.1106 12.3463L11.1106 12.3463C11.1106 11.6924 11.6303 11.1758 12.2548 11.1758L12.2548 10.1758ZM23.8558 11.1758C24.4796 11.1758 25 11.6935 25 12.348L26 12.3481C26 11.1576 25.0481 10.1758 23.8558 10.1758L23.8558 11.1758ZM8.96635 16.0824C10.158 16.0824 11.1106 15.1031 11.1106 13.912L10.1106 13.912C10.1106 14.5658 9.59085 15.0824 8.96635 15.0824L8.96635 16.0824ZM19.976 9.0055C19.976 10.1967 20.9286 11.1758 22.1202 11.1758L22.1202 10.1758C21.4957 10.1758 20.976 9.6593 20.976 9.0055L19.976 9.0055ZM11.1106 22.2637C11.1106 21.0725 10.158 20.0934 8.96635 20.0934L8.96635 21.0934C9.5909 21.0934 10.1106 21.6099 10.1106 22.2637L11.1106 22.2637ZM15.0433 9.0055C15.0433 9.6593 14.5236 10.1758 13.899 10.1758L13.899 11.1758C15.0907 11.1758 16.0433 10.1967 16.0433 9.0055L15.0433 9.0055ZM10.1106 23.8297C10.1106 25.0219 11.0667 26 12.2573 26L12.2573 25C11.6318 25 11.1106 24.4825 11.1106 23.8297L10.1106 23.8297ZM16.0433 23.8296C16.0433 22.7146 16.931 21.8241 18.0096 21.8241L18.0096 20.8241C16.364 20.8241 15.0433 22.1772 15.0433 23.8296L16.0433 23.8296ZM18.0096 21.8241C19.0882 21.8241 19.976 22.7146 19.976 23.8296L20.976 23.8296C20.976 22.1772 19.6553 20.8241 18.0096 20.8241L18.0096 21.8241ZM19.976 23.8296L19.976 25.4999L20.976 25.4999L20.976 23.8296L19.976 23.8296ZM15.0433 23.8296L15.0433 25.4999L16.0433 25.4999L16.0433 23.8296L15.0433 23.8296ZM12.2573 26L15.5433 25.9999L15.5433 24.9999L12.2573 25L12.2573 26ZM25 23.8271C25 24.4775 24.4824 24.9951 23.8617 25L23.8696 25.9999C25.0531 25.9906 26 25.0129 26 23.8271L25 23.8271ZM23.8617 25C23.8587 25 23.8557 25 23.8527 25L23.8527 26C23.8583 26 23.8639 26 23.8696 25.9999L23.8617 25ZM20.476 25.9999L23.8656 25.9999L23.8656 24.9999L20.476 24.9999L20.476 25.9999Z" fill="black"/>
</svg>

<svg width="32" height="32" fill="none" xmlns="http://www.w3.org/2000/svg"><path d="M25.5 23.827H25h.5Zm0-11.479H25h.5ZM23.853 25a.5.5 0 1 0 0 1v-1Zm-11.596.5v.5-.5Zm3.286 0v.5a.5.5 0 0 0 .5-.5h-.5Zm4.933 0h-.5a.5.5 0 0 0 .5.5v-.5Zm-9.365-1.67v-1.566h-1v1.566h1Zm-2.145-3.737c-1.078 0-1.966-.89-1.966-2.005H6c0 1.652 1.32 3.005 2.966 3.005v-1ZM7 18.088c0-1.115.888-2.006 1.966-2.006v-1C7.321 15.082 6 16.436 6 18.088h1Zm9.043-9.083C16.043 7.89 16.931 7 18.01 7V6c-1.646 0-2.967 1.353-2.967 3.005h1ZM18.01 7c1.078 0 1.966.89 1.966 2.005h1C20.976 7.353 19.656 6 18.01 6v1Zm-4.111 3.176h-1.644v1h1.644v-1Zm8.221 1h1.736v-1H22.12v1Zm-11.01 2.736v-1.566h-1v1.566h1ZM26 23.827V12.348h-1v11.48h1ZM12.255 10.176c-1.192 0-2.144.98-2.144 2.17h1c0-.654.52-1.17 1.144-1.17v-1Zm11.6 1A1.16 1.16 0 0 1 25 12.348h1c0-1.19-.952-2.172-2.144-2.172v1ZM8.967 16.082c1.192 0 2.145-.979 2.145-2.17h-1c0 .654-.52 1.17-1.145 1.17v1Zm11.01-7.077c0 1.192.953 2.17 2.144 2.17v-1a1.157 1.157 0 0 1-1.144-1.17h-1Zm-8.865 13.259c0-1.191-.953-2.17-2.145-2.17v1c.625 0 1.145.516 1.145 1.17h1Zm3.932-13.258c0 .653-.52 1.17-1.144 1.17v1c1.192 0 2.144-.98 2.144-2.17h-1ZM10.111 23.83c0 1.192.956 2.17 2.146 2.17v-1a1.16 1.16 0 0 1-1.146-1.17h-1Zm5.932 0c0-1.115.888-2.006 1.967-2.006v-1c-1.646 0-2.967 1.353-2.967 3.006h1Zm1.967-2.006c1.078 0 1.966.89 1.966 2.006h1c0-1.653-1.32-3.006-2.966-3.006v1Zm1.966 2.006v1.67h1v-1.67h-1Zm-4.933 0v1.67h1v-1.67h-1ZM12.257 26h3.286v-1h-3.286v1ZM25 23.827c0 .65-.518 1.168-1.138 1.173l.008 1c1.183-.01 2.13-.987 2.13-2.173h-1ZM23.862 25h-.01v1h.018l-.008-1Zm-3.386 1h3.39v-1h-3.39v1Z" fill="#000"/></svg>
